svgs/thin/person-arrow-up-from-line.svg

<svg xmlns="http://www.w3.org/2000/svg" viewBox="0 0 640 512"><!--! Font Awesome Pro 6.4.2 by @fontawesome - https://fontawesome.com License - https://fontawesome.com/license (Commercial License) Copyright 2023 Fonticons, Inc. --><path d="M232 56a40 40 0 1 0 -80 0 40 40 0 1 0 80 0zm-96 0a56 56 0 1 1 112 0A56 56 0 1 1 136 56zM122.7 175.7L55.2 315.5c-1.9 4-6.7 5.6-10.7 3.7s-5.6-6.7-3.7-10.7l67.5-139.8c12-24.9 37.2-40.7 64.8-40.7h37.8c27.6 0 52.8 15.8 64.8 40.7l67.5 139.8c1.9 4 .3 8.8-3.7 10.7s-8.8 .3-10.7-3.7L261.3 175.7C252 156.3 232.4 144 210.9 144H173.1c-21.5 0-41.1 12.3-50.4 31.7zM128 240c4.4 0 8 3.6 8 8V480c0 8.8 7.2 16 16 16s16-7.2 16-16V360c0-13.3 10.7-24 24-24s24 10.7 24 24V480c0 8.8 7.2 16 16 16s16-7.2 16-16V248c0-4.4 3.6-8 8-8s8 3.6 8 8V480c0 5.8-1.6 11.3-4.3 16H632c4.4 0 8 3.6 8 8s-3.6 8-8 8H8c-4.4 0-8-3.6-8-8s3.6-8 8-8H124.3c-2.7-4.7-4.3-10.2-4.3-16V248c0-4.4 3.6-8 8-8zm51.7 256h24.6c-2.7-4.7-4.3-10.2-4.3-16V360c0-4.4-3.6-8-8-8s-8 3.6-8 8V480c0 5.8-1.6 11.3-4.3 16zM597.9 138.6c3 3.2 2.8 8.3-.5 11.3s-8.3 2.8-11.3-.5L504 60.5 504 408c0 4.4-3.6 8-8 8s-8-3.6-8-8l0-347.5-82.1 89c-3 3.2-8.1 3.4-11.3 .5s-3.4-8.1-.5-11.3l96-104c1.5-1.6 3.6-2.6 5.9-2.6s4.4 .9 5.9 2.6l96 104z"/></svg>

<svg xmlns="http://www.w3.org/2000/svg" viewBox="0 0 640 512"><!--! Font Awesome Pro 6.1.1 by @fontawesome - https://fontawesome.com License - https://fontawesome.com/license (Commercial License) Copyright 2022 Fonticons, Inc. --><path d="M247.1 56C247.1 86.93 222.9 112 191.1 112C161.1 112 135.1 86.93 135.1 56C135.1 25.07 161.1 0 191.1 0C222.9 0 247.1 25.07 247.1 56zM191.1 16C169.9 16 151.1 33.91 151.1 56C151.1 78.09 169.9 96 191.1 96C214.1 96 231.1 78.09 231.1 56C231.1 33.91 214.1 16 191.1 16zM55.21 315.5C53.29 319.5 48.5 321.1 44.53 319.2C40.55 317.3 38.88 312.5 40.8 308.5L108.3 168.7C120.3 143.8 145.5 128 173.1 128H210.9C238.5 128 263.7 143.8 275.7 168.7L343.2 308.5C345.1 312.5 343.5 317.3 339.5 319.2C335.5 321.1 330.7 319.5 328.8 315.5L261.3 175.7C251.1 156.3 232.4 143.1 210.9 143.1H173.1C151.6 143.1 132 156.3 122.7 175.7L55.21 315.5zM128 240C132.4 240 136 243.6 136 248V480C136 488.8 143.2 496 152 496C160.8 496 167.1 488.8 167.1 480V360C167.1 346.7 178.7 336 192 336C205.3 336 216 346.7 216 360V480C216 488.8 223.2 496 232 496C240.8 496 247.1 488.8 247.1 480V248C247.1 243.6 251.6 240 255.1 240C260.4 240 263.1 243.6 263.1 248V480C263.1 485.8 262.4 491.3 259.7 496H632C636.4 496 640 499.6 640 504C640 508.4 636.4 512 632 512H8C3.582 512 0 508.4 0 504C0 499.6 3.582 496 8 496H124.3C121.6 491.3 120 485.8 120 480V248C120 243.6 123.6 240 128 240V240zM179.7 496H204.3C201.6 491.3 200 485.8 200 480V360C200 355.6 196.4 352 192 352C187.6 352 183.1 355.6 183.1 360V480C183.1 485.8 182.4 491.3 179.7 496zM597.9 138.6C600.9 141.8 600.7 146.9 597.4 149.9C594.2 152.9 589.1 152.7 586.1 149.4L504 60.46V408C504 412.4 500.4 416 496 416C491.6 416 488 412.4 488 408V60.46L405.9 149.4C402.9 152.7 397.8 152.9 394.6 149.9C391.3 146.9 391.1 141.8 394.1 138.6L490.1 34.57C491.6 32.93 493.8 32 496 32C498.2 32 500.4 32.93 501.9 34.57L597.9 138.6z"/></svg>
